icons/odontology_implant_fill.svg

<svg width="48" height="48" viewBox="0 0 48 48" fill="none" xmlns="http://www.w3.org/2000/svg">
<path d="M39.5776 9.13373C34.9685 4.2778 28.5979 6.45873 25.4382 8.02853L31.524 12.4591C31.9705 12.7842 32.0689 13.4096 31.7439 13.8561C31.4188 14.3026 30.7933 14.4011 30.3469 14.076L23.5301 9.11327C23.5102 9.12665 23.5 9.13368 23.5 9.13368C17.3205 4.32394 11.9517 5.35267 7.5897 10.1647C4.87545 13.159 6.17245 17.2031 7.53963 21.466C8.36961 24.0539 9.22545 26.7224 9.22545 29.2857C9.43769 29.7555 11.5814 30.134 14.6082 30.3906C14.5024 30.7196 14.4805 31.0822 14.5653 31.4497L14.5954 31.58L17.3763 30.5789C19.0819 30.6704 20.931 30.7298 22.7962 30.7534L15.0483 33.5426L15.4477 35.2732L28.0984 30.7189C33.1092 30.5819 37.2785 30.1321 37.7601 29.2857C37.7601 27.072 38.7746 24.7492 39.8111 22.3761C41.7176 18.0109 43.6985 13.4753 39.5776 9.13373Z" fill="black"/>
<path d="M33.0954 32.92L16.2999 38.9664L15.9006 37.2358L33.4847 30.9055C33.4928 31.0833 33.4771 31.2659 33.4347 31.4497L33.0954 32.92Z" fill="black"/>
<path d="M17.0131 40.8353L32.5604 35.2383L32.0887 37.2824L19.0398 41.98C18.2259 41.8858 17.4996 41.4638 17.0131 40.8353Z" fill="black"/>
<path d="M24.8889 42H28.6135C30.0104 42 31.2225 41.0358 31.5366 39.6746L31.5537 39.6007L24.8889 42Z" fill="black"/>
</svg>

<svg
  xmlns="http://www.w3.org/2000/svg"
  width="24"
  height="24"
  viewBox="0 0 24 24"
  fill="none"
  stroke="currentColor"
  stroke-width="2"
  stroke-linecap="round"
  stroke-linejoin="round"
>
  <path d="M39.578 9.134c-4.61-4.856-10.98-2.675-14.14-1.105l6.086 4.43a1 1 0 0 1-1.177 1.617L23.53 9.113l-.03.02c-6.18-4.81-11.548-3.78-15.91 1.032-2.715 2.994-1.418 7.038-.05 11.301.83 2.588 1.685 5.256 1.685 7.82.213.47 2.356.848 5.383 1.105a2 2 0 0 0-.043 1.059l.03.13 2.781-1.001c1.706.091 3.555.15 5.42.174l-7.748 2.79.4 1.73 12.65-4.554c5.011-.137 9.18-.587 9.662-1.433 0-2.214 1.015-4.537 2.051-6.91 1.907-4.365 3.888-8.9-.233-13.242" />
  <path d="M33.095 32.92 16.3 38.966l-.4-1.73 17.585-6.33a2 2 0 0 1-.05.544z" />
  <path d="m17.013 40.835 15.547-5.597-.471 2.044-13.05 4.698a3 3 0 0 1-2.026-1.145" />
  <path d="M24.889 42h3.724a3 3 0 0 0 2.924-2.325l.017-.074z" />
</svg>
